X: 1
T: Land O' Cakes
T: 8 x 32S 3C
P: Lady Kinloch of Gilmerton's Strathspey
C: A. Lawrie
C: Petrie Collection 4th ed., arr. T. Traub 6-7-2004
M: 4/4
L: 1/8
K: D
A,|"D"D<DF>A d>cd>e|"D"f>ef>b a>fe>d|"G"B<d"D"A<d "A"G<d"D"F<d|"Em"E<ee<d "A"c<ecA|"D"D<DF>A d>cd>e|
"D"f>ef>b "D7"a<fe>d|"G"B<d"D"A<d "A7"G<e"D"F<d|"Em"B<e"A"d<c d2 D2 || "Bm"f2 fb f<dc>B|"A"e2 ea e<cB>A|"E"^G<e"A"A<e "E"B<e"A"c<e|
"D"d>f"E"e>^G "A"A>=GF>E|"D"D<DF>A d>cd>f|"Em"e>de>f "A"e>cB>A|"G"B<d"D"A<d "A7"G<e"D"F<d|"Em"B<e"A"d<c "D"d2 D |]
